Catalina-light/actions/22/format-font-size-more.svg

<svg viewBox="0 0 22 22" xmlns="http://www.w3.org/2000/svg">
<defs>
<style id="current-color-scheme" type="text/css">.ColorScheme-Text {
        color:#4d4d4d
      }</style>
</defs>
<path class="ColorScheme-Text" d="m8.7363 3-5.6426 14.967h2.1309l1.4629-4.0566h8.2832l-4.0605-10.91h-2.1738zm1.0449 2.3613h0.083984l2.4453 6.752h-4.9746l2.4453-6.752zm5.5117 9.4902c-0.13007-4.7e-4 -0.26177 0.049614-0.36133 0.14844l-3.1309 3.1094c-0.19929 0.19776-0.19981 0.51965-0.001953 0.71875 0.19768 0.19912 0.51965 0.19963 0.71875 0.001953l2.7695-2.75 2.752 2.7695c0.19776 0.19912 0.51964 0.19963 0.71875 0.001953 0.1992-0.19768 0.19971-0.5176 0.001954-0.7168l-3.1094-3.1328c-0.098889-0.099558-0.22742-0.14992-0.35742-0.15039z" fill="currentColor"/>
</svg>

<svg xmlns="http://www.w3.org/2000/svg" viewBox="0 0 22 22">
  <defs id="defs3051">
    <style type="text/css" id="current-color-scheme">
      .ColorScheme-Text {
        color:#4d4d4d
      }
      </style>
  </defs>
 <path 
     style="fill:currentColor;fill-opacity:1;stroke:none"      
	 class="ColorScheme-Text"
        d="M 8.7363281 3 L 3.09375 17.966797 L 5.2246094 17.966797 L 6.6875 13.910156 L 12.980469 13.910156 L 14.970703 13.910156 L 10.910156 3 L 8.7363281 3 z M 9.78125 5.3613281 L 9.8652344 5.3613281 L 12.310547 12.113281 L 7.3359375 12.113281 L 9.78125 5.3613281 z M 15.292969 14.851562 C 15.162903 14.851092 15.031198 14.901176 14.931641 15 L 11.800781 18.109375 C 11.601489 18.307135 11.600971 18.629025 11.798828 18.828125 C 11.996509 19.02724 12.318479 19.027759 12.517578 18.830078 L 15.287109 16.080078 L 18.039062 18.849609 C 18.236824 19.048725 18.558697 19.049243 18.757812 18.851562 C 18.957008 18.653882 18.957526 18.333962 18.759766 18.134766 L 15.650391 15.001953 C 15.551502 14.902395 15.42297 14.852033 15.292969 14.851562 z "
     />
</svg>
